!!!!SEGMENT: pl-kc--40102-iii-1-saf--001-043_zielenski-mikolaj--offertoria-totius-anni-motetto-de-s-alberto-per-merita-sancti-adalberti.krn
!!!cenid: 16xx:1522
!!!COM: Zieleński, Mikołaj
!!!COM-rismID: pe30013481
!!!CDT: <1611->1611
!!!CNT: Polish
!!!GTL: Offertoria totius anni
!!!OTL: Motetto de S. Alberto/Per merita Sancti Adalberti
!!!OMV: 043
!!!PDT: 1611
!!!AGN:
!!!YEC: Copyright 2022 Narodowy Instytut Fryderyka Chopina (https://polishscores.org)
!!!YEM: License CC-BY-4.0 (https://creativecommons.org/licenses/by/4.0)
!!!SMS-siglum: PL-Kc
!!!SMS-shelfmark: 40102 III/1 Saf.
!!!SMS-shelfwork: 001-043 G
!!!SMS-variant:
!!!SMS-altvar:
!!!NIFC-rismSourceID: 990069886
!!!NIFC-rismChildID: 990069886
!!!NIFC-islandoraID: none
!!!URL-pdf-islandora:
!!!URL-scan: https://cyfrowe.mnk.pl/dlibra/publication/24235/edition/23926/content?ref=desc @EN{Scan on The National Museum in Krakow Website} @PL{Skany w portalu Biblioteka Cyfrowa Muzeum Narodowego w Krakowie}
!!!IIIF:
!!!ONB-nifc: UWAGA: str. 38. Uwaga: W xml metrum 2/1 do źródłowego C| i odpowiednio 3/1 do 3/2
!!!AIN: 4 organ
!!!key:
**kern	**kern	**kern	**kern
*group1	*group1	*group1	*group1
*part4	*part3	*part2	*part1
*staff4	*staff3	*staff2	*staff1
*I""Organo	*I""Organo	*I""Organo	*I""Organo
*I''org	*I''org	*I''org	*I''org
*Iorgan	*Iorgan	*Iorgan	*Iorgan
*ICklav	*ICklav	*ICklav	*ICklav
*clefF4	*clefC3	*clefC4	*clefG2
*k[]	*k[]	*k[]	*k[]
*C:	*C:	*C:	*C:
*M2/1	*M2/1	*M2/1	*M2/1
*met(C|)	*met(C|)	*met(C|)	*met(C|)
=1	=1	=1	=1
!	!	!LO:TX:b:t=Per merita S Adalberti.	!LO:TX:a:t=Motetto de S. Alberto. A 8.
00r	00r	1G	1dd
.	.	2.C/	2.ee\
.	.	4C/	4ee\
=2-	=2-	=2-	=2-
.	.	2G/	2dd\
.	.	1E	1gg
.	.	2F/	2ff\
=3	=3	=3	=3
0r	0r	2G/	2dd\
.	.	2E/	2ee\
.	.	1D	1ff
=4-	=4-	=4-	=4-
1C	1g	1C	1ee
2.FF/	2.a\	1r	1r
4FF/	4a\	.	.
=5	=5	=5	=5
2C/	2g\	00r	00r
1AA	1a	.	.
2BB/	4g\	.	.
.	4f\	.	.
=6-	=6-	=6-	=6-
2C/	2e\	.	.
2GG/	2.g\	.	.
1D	.	.	.
.	8f#X\	.	.
.	8e\	.	.
.	2f#\	.	.
=7	=7	=7	=7
2GG/	2g\	2r	2r
2G\	2g\	2G/	2gg\
2.D/	2.a\	2.d\	2.ff\
4D/	4a\	4d\	4ff\
=8-	=8-	=8-	=8-
2A\	2a\	2c\	2ee\
1E	1g	1e	2.gg\
.	.	.	4ff\
2E\	2g\	2e\	4ee\
.	.	.	4dd\
=9	=9	=9	=9
2F\	2a\	2A/	4cc\
.	.	.	4a/
2D/	2f\	2A/	1dd
1AA	1e	1A	.
.	.	.	2cc#X\
=10-	=10-	=10-	=10-
1D	1f#X	2D/	2dd\
.	.	1d	1ff#X
1r	1r	.	.
.	.	2B\	2gg\
=11	=11	=11	=11
00r	00r	2c\	2ee\
.	.	2G/	2dd\
.	.	1d	1dd
=12-	=12-	=12-	=12-
.	.	2G/	2dd\
.	.	2G/	2b/
.	.	4F/	4cc\
.	.	4D/	4dd\
.	.	4E/	4b/
.	.	4C/	4ee\
=13	=13	=13	=13
1r	1r	2F/	8dd\
.	.	.	8cc\
.	.	.	2cc\
.	.	2G/	.
.	.	.	4b/
2r	2r	2C/	2cc\
1G	1g	2r	2r
=14-	=14-	=14-	=14-
.	.	0r	0r
2E\	2g\	.	.
2F\	2c/	.	.
2E\	4g\	.	.
.	[<4g\	.	.
=15	=15	=15	=15
1A	4g\]	00r	00r
.	8f#X\	.	.
.	8e\	.	.
.	2f#\	.	.
2G\	2g\	.	.
2C/	2e\	.	.
=16-	=16-	=16-	=16-
4D/	4f#X\	.	.
4BB/	4g\	.	.
4C/	4e\	.	.
4AA/	2a\	.	.
4.BB/	.	.	.
.	2g\	.	.
8C/	.	.	.
4D/	.	.	.
4D/	4f#\	.	.
=17	=17	=17	=17
1GG	1g	1.G	1.dd
1r	1r	.	.
.	.	2G/	2dd\
=18-	=18-	=18-	=18-
0r	0r	2c\	2ee\
.	.	2A/	2ff#X\
.	.	2.G/	2.gg\
.	.	4G/	4gg\
*custos:GG	*custos:g	*custos:d	*custos:ff
!!LO:LB:g=original
=19	=19	=19	=19
!	!	!	!LO:TX:t=P:problem=przy kluczu zbędny bemol b-
00r	00r	2d\	2ff#X\
.	.	1B	1gg
.	.	1c	1ee
=20-	=20-	=20-	=20-
.	.	.	.
.	.	2A/	2ff#X\
.	.	2G/	2gg\
.	.	2F#X/	2aa\
=21	=21	=21	=21
0r	0r	2G/	2gg\
.	.	2A/	2ee\
!	!	!	!LO:N:vis=2
.	.	1C	1ff#X
=22-	=22-	=22-	=22-
1r	1r	1r	1r
[y1GG	[y1g	[y1d	[y1gg
=23	=23	=23	=23
!LO:N:xstem:cue:vis=4	!LO:N:xstem:cue:vis=4	!LO:N:xstem:cue:vis=4	!LO:N:xstem:cue:vis=4
2GG/]	2g\]	2d\]	2gg\]
2GG/	2g\	2d\	2dd\
1.C	2.g\	1G	2.ee\
.	4f\	.	4ff\
=24-	=24-	=24-	=24-
.	4e\	2G/	2gg\
.	4d\	.	.
2C/	4c/	1C	2ee\
.	4B/	.	.
[y1FF	2A/	.	[y1ff
.	2a\	2F/	.
=25	=25	=25	=25
!LO:N:xstem:cue:vis=4	!	!	!LO:N:xstem:cue:vis=4
2FF/]	2a\	4F/	2ff\]
.	.	8E/	.
.	.	8D/	.
2FF/	2a\	4C/	2ff\
.	.	4D/	.
1.C	2.g\	1E	2ee\
.	.	.	2gg\
.	4f\	.	.
=26-	=26-	=26-	=26-
.	4e\	2E/	4gg\
.	4d\	.	4ff\
2C/	1c	2E/	4ee\
.	.	.	4dd\
[y1AA	.	2.A/	4cc\
.	.	.	4a/
.	2c/	.	2ee\
.	.	4B\	.
=27	=27	=27	=27
!LO:N:xstem:cue:vis=4	!	!	!
2AA/]	2.e\	4c\	4ee\
.	.	4B\	4dd\
2AA/	.	4A/	4cc\
.	4f\	4G/	4b\
1D	1.A	2F/	2a/
.	.	2F/	2.ff\
=28-	=28-	=28-	=28-
1DD	.	2D/	.
.	.	.	4ee\
.	2A/	2D/	1dd
[y1AA	[y1A	[y1E	.
.	.	.	4cc\
.	.	.	4b/
=29	=29	=29	=29
!LO:N:xstem:cue:vis=4	!LO:N:xstem:cue:vis=4	!LO:N:xstem:cue:vis=4	!
2AA/]	2A/]	2E/]	2cc#X\
2AA/	2A/	2E/	2cc#\
1DD	1A	1D	1dd
=30-	=30-	=30-	=30-
1r	1r	1r	1r
[y1GG	[y1g	[y1d	[y1gg
=31	=31	=31	=31
!LO:N:xstem:cue:vis=4	!LO:N:xstem:cue:vis=4	!LO:N:xstem:cue:vis=4	!LO:N:xstem:cue:vis=4
2GG/]	2g\]	2d\]	2gg\]
2GG/	2g\	2d\	2dd\
1.C	2.g\	1G	2.ee\
.	4f\	.	4ff\
=32-	=32-	=32-	=32-
.	4e\	2G/	2gg\
.	4d\	.	.
2C/	4c/	1C	2ee\
.	4B/	.	.
[y1FF	2A/	.	[y1ff
.	2a\	2F/	.
=33	=33	=33	=33
!LO:N:xstem:cue:vis=4	!	!	!LO:N:xstem:cue:vis=4
2FF/]	2a\	4F/	2ff\]
.	.	8E/	.
.	.	8D/	.
2FF/	2a\	4C/	2ff\
.	.	4D/	.
1.C	2.g\	1E	2ee\
.	.	.	2gg\
.	4f\	.	.
=34-	=34-	=34-	=34-
!LO:N:xstem:cue:vis=4	!	!	!
.	4e\	2E/	4gg\
.	4d\	.	4ff\
2C/	1c	2E/	4ee\
.	.	.	4dd\
[y1AA	.	2.A/	4cc\
.	.	.	4a/
.	2c/	.	2ee\
.	.	4B\	.
=35	=35	=35	=35
!LO:N:xstem:cue:vis=4	!	!	!
2AA/]	2.e\	4c\	4ee\
.	.	4B\	4dd\
2AA/	.	4A/	4cc\
.	4e\	4G/	4b/
1D	1.A	2F/	2a/
.	.	2F/	2.ff\
=36-	=36-	=36-	=36-
1DD	.	2D/	.
.	.	.	4ee\
.	2A/	2D/	1dd
[y1AA	[y1A	[y1E	.
.	.	.	4cc#X\
.	.	.	4b/
=37	=37	=37	=37
!LO:N:xstem:cue:vis=4	!LO:N:xstem:cue:vis=4	!LO:N:xstem:cue:vis=4	!
2AA/]	2A/]	2E/]	2cc#X\
2AA/	2A/	2E/	2cc#\
1DD	1A	2D/	2dd\
.	.	2d\	2ff#X\
=38-	=38-	=38-	=38-
1r	1r	2B\	2gg\
.	.	2c\	2ee\
2r	2r	1G	1dd
2G\	2g\	.	.
=39	=39	=39	=39
2E\	2g\	1r	1r
2F\	2f\	.	.
1C	1e	2r	2r
.	.	2c\	2ee\
=40-	=40-	=40-	=40-
0r	0r	2A/	2ff\
.	.	2B-X\	2dd\
.	.	4F/	4cc\
.	.	2c\	2ee\
.	.	4A/	4ff#X\
=41	=41	=41	=41
1r	1r	1G	4gg\
.	.	.	8ff\
.	.	.	8ee\
.	.	.	2dd\
2r	2r	1C	1ee
2C/	2g\	.	.
=42-	=42-	=42-	=42-
2AA/	2a\	0r	0r
2BB-X/	2f\	.	.
!	!LO:N:vis=2	!	!
4FF/	2.e\	.	.
2C/	.	.	.
4AA/	4f#X\	.	.
=43	=43	=43	=43
1GG	4g\	1r	1r
.	8f\	.	.
.	8e\	.	.
.	2d\	.	.
2.C/	2.e\	2r	2r
.	.	2C/	2gg\
4C/	4e\	.	.
=44-	=44-	=44-	=44-
2FF/	2c/	2F/	2ff\
2FF/	2c/	2F/	2ff\
2C/	2e\	2C/	4ee\
.	.	.	2gg\
2GG/	[<2d\	2G/	.
.	.	.	[<4dd\
*custos:D	*custos:d	*custos:D	*custos:dd
!!LO:LB:g=original
=45	=45	=45	=45
2D/	2d\]	2D/	4dd\]
.	.	.	2ff\
2DD/	2a\	2F/	.
.	.	.	4dd\
2.AA/	1a	2E/	2ee\
.	.	4C/	2.ee\
4BB/	.	4D/	.
=46-	=46-	=46-	=46-
1C	1.g	4E/	.
.	.	4F/	4dd\
.	.	1G	2cc\
1GG	.	.	2b/
.	2d\	2D/	2dd\
=47	=47	=47	=47
0DD	2f#X\	0D	2dd\
.	2g\	.	4cc\
.	.	.	4b/
.	2a\	.	1a
.	2d\	.	.
=48-	=48-	=48-	=48-
0GG	1d	0D	2b/
.	.	.	1dd
.	[y1g	.	.
.	.	.	2dd\
=49	=49	=49	=49
!	!LO:N:xstem:cue:vis=4	!	!
00DD	2g\]	2.E/	4cc\
.	.	.	4dd\
.	2g\	.	4ee\
.	.	4D/	4ff\
.	0.g	1.C	2.gg\
.	.	.	4ff\
=50-	=50-	=50-	=50-
.	.	.	2ee\
.	.	2C/	2cc\
.	.	1C	1ee
=51-	=51-	=51-	=51-
0GGl	0gl	0Dl	0ddl
==	==	==	==
*-	*-	*-	*-
!!!system-decoration: *
!!!RDF**kern: > = above
!!!RDF**kern: < = below
!!!RDF**kern: l = terminal long
!!!ENC: Filip Voros
!!!END: 2021-12-15
!!!ENC: Andrzej Kubiczek
!!!END: 2021-12-21
